papirus/48x48/status/notification-display-brightness-low.svg

<?xml version="1.0" encoding="UTF-8" standalone="no"?>
<svg
   xmlns:dc="http://purl.org/dc/elements/1.1/"
   xmlns:cc="http://creativecommons.org/ns#"
   xmlns:rdf="http://www.w3.org/1999/02/22-rdf-syntax-ns#"
   xmlns:svg="http://www.w3.org/2000/svg"
   xmlns="http://www.w3.org/2000/svg"
   xmlns:sodipodi="http://sodipodi.sourceforge.net/DTD/sodipodi-0.dtd"
   xmlns:inkscape="http://www.inkscape.org/namespaces/inkscape"
   viewBox="0 0 48.000001 48.000001"
   version="1.1"
   width="48"
   height="48"
   id="svg4468"
   inkscape:version="0.91 r13725"
   sodipodi:docname="notification-display-brightness-low.svg">
  <sodipodi:namedview
     pagecolor="#ffffff"
     bordercolor="#666666"
     borderopacity="1"
     objecttolerance="10"
     gridtolerance="10"
     guidetolerance="10"
     inkscape:pageopacity="0"
     inkscape:pageshadow="2"
     inkscape:window-width="1535"
     inkscape:window-height="876"
     id="namedview15"
     showgrid="false"
     inkscape:zoom="13.12"
     inkscape:cx="4.5609314"
     inkscape:cy="24"
     inkscape:window-x="65"
     inkscape:window-y="24"
     inkscape:window-maximized="1"
     inkscape:current-layer="svg4468" />
  <defs
     id="defs4470" />
  <metadata
     id="metadata4473">
    <rdf:RDF>
      <cc:Work
         rdf:about="">
        <dc:format>image/svg+xml</dc:format>
        <dc:type
           rdf:resource="http://purl.org/dc/dcmitype/StillImage" />
        <dc:title />
      </cc:Work>
    </rdf:RDF>
  </metadata>
  <rect
     id="rect4777"
     ry="2"
     rx="2"
     transform="matrix(0,-1,-1,0,0,0)"
     height="24"
     width="32"
     y="-36"
     x="-42.000023"
     style="fill:#c4c4c4;fill-opacity:1" />
  <rect
     id="rect4203-7"
     transform="matrix(0,-1,-1,0,0,0)"
     rx="2"
     ry="2"
     height="40"
     width="32"
     y="-44"
     x="-38.000023"
     style="fill:#c4c4c4;fill-opacity:1" />
  <rect
     id="rect3282"
     ry="0"
     rx="0"
     transform="matrix(0,-1,-1,0,0,0)"
     height="34"
     width="26"
     y="-41"
     x="-35.000023"
     style="fill:#4d4d4d;fill-opacity:1" />
  <path
     id="rect4414"
     d="M 6,6 C 4.892,6 4,6.892 4,8 L 4,9 C 4,7.892 4.892,7 6,7 l 36,0 c 1.108,0 2,0.892 2,2 L 44,8 C 44,6.892 43.108,6 42,6 L 6,6 Z"
     style="opacity:0.2;fill:#ffffff" />
  <path
     id="rect4779"
     d="m 12,39 0,1 c 0,1.108 0.892,2 2,2 l 20,0 c 1.108,0 2,-0.892 2,-2 l 0,-1 c 0,1.108 -0.892,2 -2,2 l -20,0 c -1.108,0 -2,-0.892 -2,-2 z"
     style="opacity:0.3" />
  <path
     id="rect4077"
     d="m 4,35 0,1 c 0,1.108 0.892,2 2,2 l 36,0 c 1.108,0 2,-0.892 2,-2 l 0,-1 c 0,1.108 -0.892,2 -2,2 L 6,37 C 4.892,37 4,36.108 4,35 Z"
     style="opacity:0.3" />
  <path
     id="path4233"
     d="m 24,11.685094 -3.314453,3.314453 -4.685547,0 0,4.685547 -3.314453,3.314453 L 16,26.314 l 0,4.685547 4.685547,0 L 24,34.314 27.314453,30.999547 32,30.999547 32,26.314 35.314453,22.999547 32,19.685094 l 0,-4.685547 -4.685547,0 L 24,11.685094 Z m 0,5.314453 a 6,6 0 0 1 6,6 6,6 0 0 1 -6,6 6,6 0 0 1 -6,-6 6,6 0 0 1 6,-6 z"
     style="opacity:0.2;fill:#000000;fill-opacity:1;stroke:none;stroke-width:6;stroke-linejoin:round;stroke-miterlimit:4;stroke-dasharray:none;stroke-opacity:1"
     inkscape:connector-curvature="0" />
  <path
     style="opacity:1;fill:#c4c4c4;fill-opacity:1;stroke:none;stroke-width:6;stroke-linejoin:round;stroke-miterlimit:4;stroke-dasharray:none;stroke-opacity:1"
     d="M 24 10.685547 L 20.685547 14 L 16 14 L 16 18.685547 L 12.685547 22 L 16 25.314453 L 16 30 L 20.685547 30 L 24 33.314453 L 27.314453 30 L 32 30 L 32 25.314453 L 35.314453 22 L 32 18.685547 L 32 14 L 27.314453 14 L 24 10.685547 z M 24 16 A 6 6 0 0 1 30 22 A 6 6 0 0 1 24 28 A 6 6 0 0 1 18 22 A 6 6 0 0 1 24 16 z "
     id="path4194" />
</svg>

<?xml version="1.0" encoding="UTF-8" standalone="no"?>
<svg id="svg4468" xmlns:rdf="http://www.w3.org/1999/02/22-rdf-syntax-ns#" xmlns="http://www.w3.org/2000/svg" height="48" viewBox="0 0 48.000001 48.000001" width="48" version="1.1" xmlns:cc="http://creativecommons.org/ns#" xmlns:dc="http://purl.org/dc/elements/1.1/">
 <metadata id="metadata4473">
  <rdf:RDF>
   <cc:Work rdf:about="">
    <dc:format>image/svg+xml</dc:format>
    <dc:type rdf:resource="http://purl.org/dc/dcmitype/StillImage"/>
    <dc:title/>
   </cc:Work>
  </rdf:RDF>
 </metadata>
 <rect id="rect4777" ry="2" rx="2" transform="matrix(0,-1,-1,0,0,0)" height="24" width="32" y="-36" x="-42" fill="#c4c4c4"/>
 <rect id="rect4203-7" transform="matrix(0,-1,-1,0,0,0)" rx="2" ry="2" height="40" width="32" y="-44" x="-38" fill="#c4c4c4"/>
 <rect id="rect3282" ry="0" rx="0" transform="matrix(0,-1,-1,0,0,0)" height="34" width="26" y="-41" x="-35" fill="#4d4d4d"/>
 <path id="rect4414" opacity=".2" fill="#fff" d="m6 6c-1.108 0-2 0.892-2 2v1c0-1.108 0.892-2 2-2h36c1.108 0 2 0.892 2 2v-1c0-1.108-0.892-2-2-2h-36z"/>
 <path id="rect4779" opacity=".2" d="m12 40v1c0 1.108 0.892 2 2 2h20c1.108 0 2-0.892 2-2v-1c0 1.108-0.892 2-2 2h-20c-1.108 0-2-0.892-2-2z"/>
 <path id="rect4077" opacity=".2" d="m4 36v1c0 1.108 0.892 2 2 2h36c1.108 0 2-0.892 2-2v-1c0 1.108-0.892 2-2 2h-36c-1.108 0-2-0.892-2-2z"/>
 <path id="path4233" opacity=".2" d="m24 11.685-3.3145 3.3145h-4.6855v4.6855l-3.3145 3.3145 3.314 3.314v4.6855h4.6855l3.314 3.314 3.314-3.314h4.686v-4.686l3.314-3.314-3.314-3.315v-4.6855h-4.6855l-3.314-3.315zm0 5.3145a6 6 0 0 1 6 6 6 6 0 0 1 -6 6 6 6 0 0 1 -6 -6 6 6 0 0 1 6 -6z"/>
 <path id="path4194" d="m24 10.686l-3.314 3.314h-4.686v4.686l-3.314 3.314 3.314 3.314v4.686h4.686l3.314 3.314 3.314-3.314h4.686v-4.686l3.314-3.314-3.314-3.314v-4.686h-4.686l-3.314-3.314zm0 5.314a6 6 0 0 1 6 6 6 6 0 0 1 -6 6 6 6 0 0 1 -6 -6 6 6 0 0 1 6 -6z" fill="#c4c4c4"/>
</svg>
